!!!!SEGMENT: pl-gd--ee-2628--005-008_stabile-annibale--il-primo-libro-de-madrigali-a-cinque-voci-ma-mostra-homai.krn
!!!cenid: 15xx:1053
!!!COM: Stabile, Annibale
!!!COM-rismID: pe30009662
!!!CDT: ~1535-1595/04
!!!CNT: Italian
!!!GTL: Il primo libro de madrigali a cinque voci
!!!OTL: Ma mostra homai
!!!OMV: 008
!!!PDT: 1586
!!!AGN:
!!!YEC: Copyright 2022 Narodowy Instytut Fryderyka Chopina (https://polishscores.org)
!!!YEM: License CC-BY-4.0 (https://creativecommons.org/licenses/by/4.0)
!!!SMS-siglum: PL-GD
!!!SMS-shelfmark: Ee 2628
!!!SMS-variant:
!!!SMS-altvar:
!!!SMS-shelfwork: 005-008 G
!!!NIFC-rismSourceID: 1001203361
!!!NIFC-rismChildID: 990060531
!!!NIFC-islandoraID: pl-gd:66139
!!!URL-pdf-islandora: https://repozytorium.nifc.pl/islandora/object/pl-gd%3A66139/datastream/PDF/view
!!!URL-scan: https://polish.musicsources.pl/pl/lokalizacje/galeria/klocki-introligatorskie/673 @EN{Scan on Polish Music Sources Website} @PL{Skany w portalu Dziedzictwo Muzyki Polskiej w otwartym dostępie}
!!!IIIF:
!!!ONB-nifc: UWAGA: Canto: s. 78-89, Tenore: s. 233-245, Basso: s. 390-401, Quinto: s. 712-723. Dla głosu Alto proszę skorzystać z https://pbc.gda.pl/dlibra/doccontent?id=79410, str. 25-48. Uwaga: utwory podzielone wg spisu treści dostępnych na końcu ksiąg – proszę sprawdzać sąsiednie tytuły. Głos Quinto proszę umieszczać wg ambitusu (może się różnić w zależności od utworu).
!!!AIN: 1 alto 1 bass 2 soprn 1 tenor
!!!key: g:dor
**kern	**text	**kern	**text	**kern	**text	**kern	**text	**kern	**text
*part5	*	*part4	*	*part3	*	*part2	*	*part1	*
*staff5	*	*staff4	*	*staff3	*	*staff2	*	*staff1	*
*I"BASSO	*	*I"TENORE	*	*I"ALTO	*	*I"QVINTO	*	*I"CANTO	*
*I'B	*	*I'T	*	*I'A	*	*I'V 5	*	*I'S	*
*Ibass	*	*Itenor	*	*Ialto	*	*Isoprn	*	*Isoprn	*
*ICvox	*	*ICvox	*	*ICvox	*	*ICvox	*	*ICvox	*
*clefF3	*	*clefC3	*	*clefC2	*	*clefG2	*	*clefG2	*
*k[b-]	*	*k[b-]	*	*k[b-]	*	*k[b-]	*	*k[b-]	*
*g:dor	*	*g:dor	*	*g:dor	*	*g:dor	*	*g:dor	*
*M2/1	*	*M2/1	*	*M2/1	*	*M2/1	*	*M2/1	*
*met(C)	*	*met(C)	*	*met(C)	*	*met(C)	*	*met(C)	*
=1-	=1-	=1-	=1-	=1-	=1-	=1-	=1-	=1-	=1-
!LO:TX:t=P:problem:skan 393	!	!	!	!LO:TX:t=P:problem:skan 33	!	!	!	!LO:TX:t=P:problem:skan 81	!
!LO:TX:a:i:t=Seconda parte	!	!LO:TX:t=P:problem:skan 237	!	!LO:TX:a:i:t=Seconda parte	!	!LO:TX:t=P:problem:skan 715	!	!LO:TX:a:i:t=Seconda parte	!
2r	.	1r	.	2r	.	2dd\	Ma	2r	.
2G\	Ma	.	.	2d/	Ma	4b-/	moſ-	2gg\	Ma
.	.	.	.	.	.	4b-/	-tra ho-	.	.
4D/	moſ-	2r	.	4d/	moſtra	2a/	-mai	4ff\	moſ-
4F/	-tra ho-	.	.	4c/	ho-	.	.	4ff\	-tra ho-
4C/	-mai	2g\	Ma	2c/	-mai	4cc\	quel-	2ee\	-mai
*	*ij	*	*	*	*	*	*	*	*
4c\	Ma	.	.	.	.	8cc\	-le	.	.
.	.	.	.	.	.	8cc\	tue	.	.
=2-	=2-	=2-	=2-	=2-	=2-	=2-	=2-	=2-	=2-
4d\	moſ-	4f\	moſ-	2r	.	4a/	lu-	4dd\	quel-
4B-\	-tra ho-	4f\	-tra ho-	.	.	4b-/	-ci ar-	8dd\	-le
.	.	.	.	.	.	.	.	8dd\	tue
*	*	*	*	*	*ij	*	*	*	*
2c\	-mai	2e\	-mai	2cc\	Ma	2g/	-den-	4ee\	lu-
*	*Xij	*	*	*	*	*	*	*	*
.	.	.	.	.	.	.	.	4cc\	-ci ar-
4G\	quel-	1r	.	4b-\	moſtra	4g/	-ti	2gg\	-den-
8G\	-le	.	.	4b-\	ho-	4gg\	Ma	.	.
8G\	tue	.	.	.	.	.	.	.	.
!LO:SIC:v:t=custos A	!	!	!	!	!	!LO:SIC:v:t=custos ff	!	!	!
!LO:LB:g=original	!	!	!	!	!	!LO:LB:g=original	!	!	!
4A\	lu-	.	.	2a\	-mai	4ff\	moſ-	1cc\	-ti
*	*	*	*	*	*Xij	*	*	*	*
4F/	-ci ar-	.	.	.	.	4ff\	-tra ho-	.	.
=3-	=3-	=3-	=3-	=3-	=3-	=3-	=3-	=3-	=3-
2c\	-den-	2r	.	4g\	quel-	2ee\	-mai	.	.
.	.	.	.	8g\	-le	.	.	.	.
.	.	.	.	8g\	tue	.	.	.	.
!	!	!	!	!LO:SIC:v:t=custos a	!	!	!	!	!
!	!	!	!	!LO:LB:g=original	!	!	!	!	!
2F/	-ti	4c\	quel-	2a\	luci	4cc\	quel-	2r	.
.	.	8c\	-le	.	.	8cc\	-le	.	.
.	.	8c\	tue	.	.	8cc\	tue	.	.
1r	.	4d\	lu-	4f\	ar-	4a/	lu-	4r	.
.	.	4B-/	-ci ar-	4.b-\	-den	4dd\	-ci ar-	4ff\	Mo-
!	!	!	!	!	!	!	!	!LO:SIC:v:t=custos f	!
!	!	!	!	!	!	!	!	!LO:LB:g=original	!
.	.	2f\	-den-	.	.	2cc\	-den-	4ff\	-ſtra
.	.	.	.	8a\	.	.	.	.	.
.	.	.	.	4a\	.	.	.	4ff\	quei
!	!	!LO:SIC:v:t=custos B	!	!	!	!	!	!	!
!	!	!LO:LB:g=original	!	!	!	!	!	!	!
=4-	=4-	=4-	=4-	=4-	=4-	=4-	=4-	=4-	=4-
2r	.	1B-	-ti	4b-\	ti	4b-/	-ti	4dd\	tuoi
.	.	.	.	4f\	Moſ-	4dd\	Moſ-	4b-/	crin
2B-\	Moſ-	.	.	4f\	-tra	4dd\	-tra	1ff	d'or
.	.	.	.	4f\	quei	4dd\	quei	.	.
!	!	!	!	!	!	!LO:SIC:v:t=custos b	!	!	!
!	!	!	!	!	!	!LO:LB:g=original	!	!	!
4B-\	-tra	1r	.	4d/	tuot	2.b-/	tuoi	.	.
4B-\	quei	.	.	4B-/	crin	.	.	.	.
4G\	tuoi	.	.	1b-\	d'or	.	.	2gg\	all'-
4E-X/	crin	.	.	.	.	4ee-X\	crin	.	.
=5-	=5-	=5-	=5-	=5-	=5-	=5-	=5-	=5-	=5-
1.B-	d'or	2r	.	.	.	4dd\	d'or	8ff\	-au-
.	.	.	.	.	.	.	.	8ee\	.
.	.	.	.	.	.	4ff\	Moſ-	8dd\	.
.	.	.	.	.	.	.	.	8cc\	.
!	!	!	!	!LO:SIC:v:t=custos b	!	!	!	!	!
!	!	!	!	!LO:LB:g=original	!	!	!	!	!
.	.	4r	.	2b-\	all'	4ff\	-tra	8b-\	.
.	.	.	.	.	.	.	.	8cc\	.
.	.	4f\	Moſ-	.	.	4ff\	quei	8dd\	.
.	.	.	.	.	.	.	.	8ee\	.
.	.	4f\	-tra	2.b-\	au-	4dd\	tuoi	2.ff\	.
.	.	4f\	quei	.	.	4b-/	crin	.	.
2BB-/	al-	4d\	tuoi	.	.	2ff\	d'or	.	.
.	.	2B-/	crin	4b-\	-ra	.	.	4dd\	-ra
!LO:SIC:v:t=custos E	!	!	!	!	!	!	!	!	!
!LO:LB:g=original	!	!	!	!	!	!	!	!	!
=6-	=6-	=6-	=6-	=6-	=6-	=6-	=6-	=6-	=6-
2.E-X/	-l'au-	.	.	2b-\	ſpar-	4r	.	2ee-X\	ſpar-
.	.	2e-X\	d'or	.	.	4gg\	all'-	.	.
.	.	.	.	2g\	-ſi	4gg\	-au-	2b-/	-ſi
4D/	-ra	4B-/	all'-	.	.	4ff\	-ra	.	.
0C	ſpar-	2c/	-au-	1rg	.	2.ee-X\	ſpar-	4r	.
.	.	.	.	.	.	.	.	4gg\	all'-
.	.	2c/	-ra	.	.	.	.	4gg\	-au-
.	.	.	.	.	.	4dd\	-ſi	4ff\	-ra
!	!	!	!	!	!	!	!	!LO:SIC:v:t=custos ee	!
!	!	!	!	!	!	!	!	!LO:LB:g=original	!
=7-	=7-	=7-	=7-	=7-	=7-	=7-	=7-	=7-	=7-
.	.	4r	.	4r	.	4.cc\	al-	1ee-X	ſpar-
.	.	4G/	al-	4cc\	all'-	.	.	.	.
.	.	.	.	.	.	8b-\	.	.	.
!	!	!LO:SIC:v:t=custos c	!	!	!	!	!	!	!
!	!	!LO:LB:g=original	!	!	!	!	!	!	!
.	.	2.c/	-l'au-	4cc\	-au-	4a/	.	.	.
.	.	.	.	4b-\	-ra	4g/	.	.	.
1D	-ſi	.	.	4a\	ſpar-	4f#X/	-l'au-	1dd	-ſi
.	.	4B-/	-ra	2g\	.	4g/	-ra	.	.
!	!	!	!	!	!	!LO:SIC:v:t=custos a	!	!	!
!	!	!	!	!	!	!LO:LB:g=original	!	!	!
.	.	2A/	ſpar-	.	.	2a/	ſpar-	.	.
.	.	.	.	4f#X\	.	.	.	.	.
=8-	=8-	=8-	=8-	=8-	=8-	=8-	=8-	=8-	=8-
!	!	!	!	!	!	!LO:N:acc=#	!	!	!
2r	.	1G	-ſi	2g\	-ſi	2bn/	-ſi	2r	.
!	!	!	!	!	!	!	!	!LO:N:acc=#	!
2G\	Che	.	.	2g\	Che	2dd\	Che	2bn/	Che
4.c\	toſ-	1r	.	4.g\	toſ-	4.eeny\	toſ-	4.cc\	toſ-
8A\	-to	.	.	8a\	-to	8ff\	-to	8cc\	-to
4B-\	ve-	.	.	4fny\	ved-	4dd\	ve-	4b-y/	ve-
4G\	-dra	.	.	4g\	-ra	4ee\	-dra	4b-/	-dra
=9-	=9-	=9-	=9-	=9-	=9-	=9-	=9-	=9-	=9-
2F/	far-	0r	.	2a\	far	2ff\	far-	2cc\	far-
!	!	!	!	!LO:SIC:v:t=custos a	!	!	!	!	!
!	!	!	!	!LO:LB:g=original	!	!	!	!	!
4F/	-ſi	.	.	4a\	ſi	4ff\	-ſi	4cc\	-ſi
4B-\	Chia-	.	.	4b-\	Chia-	4ff\	Chia-	4dd\	Chia-
4B-\	-ro et	.	.	4.b-\	-ro et	4ff\	-ro et	4.dd\	-ro et
4G\	ſe-	.	.	.	.	4gg\	ſe-	.	.
.	.	.	.	8b-\	ſe-	.	.	8dd\	ſe-
4A\	-re-	.	.	4a\	-re-	4ff\	-re-	4cc\	-re-
4c\	-no il	.	.	4g\	-no il	4ee\	-no il	4cc\	-no il
=10-	=10-	=10-	=10-	=10-	=10-	=10-	=10-	=10-	=10-
!	!	!	!	!	!	!	!	!LO:N:acc=#	!
2G\	cie-	4r	.	2g\	cie-	2dd\	cie-	2bn/	cie-
.	.	4g\	C'ho-	.	.	.	.	.	.
!LO:SIC:v:t=custos C	!	!	!	!	!	!	!	!	!
!LO:LB:g=original	!	!	!	!	!	!	!	!	!
4C/	-lo	2.eny\	-ra	2g\	-lo	2ee\	-lo	1cc	-lo
4c\	C'ho-	.	.	.	.	.	.	.	.
4.A\	-ra	.	.	1a	C'ho-	1r	.	.	.
.	.	4e\	di	.	.	.	.	.	.
8G\	di	.	.	.	.	.	.	.	.
4F/	nu-	4.f\	nu-	.	.	.	.	4r	.
4D/	-be il	.	.	.	.	.	.	4dd\	C'ho-
.	.	8e\	.	.	.	.	.	.	.
=11-	=11-	=11-	=11-	=11-	=11-	=11-	=11-	=11-	=11-
!	!	!	!	!	!	!	!	!LO:N:acc=#	!
2G\	ve-	8d\	.	1g	-ra	4r	.	4bn/	-ra
.	.	8c\	.	.	.	.	.	.	.
.	.	4d\	.	.	.	4gg\	C'ho-	4b/	di
!	!	!	!	!	!	!	!	!LO:SIC:v:t=custos cc	!
!	!	!	!	!	!	!	!	!LO:LB:g=original	!
2C/	-lo	2c/	-be il	.	.	4ee\	-ra	4.cc\	nu-
.	.	.	.	.	.	4ee\	di	.	.
.	.	.	.	.	.	.	.	8b-y/	.
!	!	!	!	!	!	!LO:SIC:v:t=custos ff	!	!	!
!	!	!	!	!	!	!LO:LB:g=original	!	!	!
1r	.	2d\	ve-	4r	.	4ff#X\	nu-	8a/	.
.	.	.	.	.	.	.	.	8g/	.
.	.	.	.	4dd\	di	4ff#\	-be il	4a/	.
!	!	!	!	!LO:N:acc=#	!	!	!	!	!
.	.	2G/	-lo	4bn\	nu-	1gg\	ve-	4g/	-be il
.	.	.	.	4b\	-be il	.	.	4dd\	ve-
=12-	=12-	=12-	=12-	=12-	=12-	=12-	=12-	=12-	=12-
1r	.	2c/	Ri-	4.cc\	ve-	.	.	4ee-X\	-lo
.	.	.	.	.	.	.	.	4ee-\	Ri-
.	.	.	.	8b-y\	.	.	.	.	.
.	.	2d\	-cuo-	8a\	.	2ff#X\	-lo	2dd\	-cuo-
.	.	.	.	8g\	.	.	.	.	.
.	.	.	.	4a\	.	.	.	.	.
!	!	!	!	!LO:SIC:v:t=custos b	!	!	!	!	!
!	!	!	!	!LO:LB:g=original	!	!	!	!	!
2r	.	4G/	-pre	4b-\	-lo	2gg\	Ri-	2dd\	-pre
.	.	4G/	Ri-	8B-/	Ri-	.	.	.	.
.	.	.	.	8c/	.	.	.	.	.
!	!	!LO:SIC:v:t=custos B	!	!	!	!	!	!	!
!	!	!LO:LB:g=original	!	!	!	!	!	!	!
2G\	Ri-	2.B-/	-cuo-	8d/	.	1g/	-cuo-	2dd\	Ri-
.	.	.	.	8e-X/	.	.	.	.	.
.	.	.	.	2d/	.	.	.	.	.
=13-	=13-	=13-	=13-	=13-	=13-	=13-	=13-	=13-	=13-
1E-X	-cuo-	.	.	.	.	.	.	1gg	-cuo-
.	.	4A/	.	8c/	-cuo-	.	.	.	.
.	.	.	.	8B-/	.	.	.	.	.
.	.	2G/	.	2c/	.	2g/	-pre	.	.
2D/	-pre	4A/	-pre	2d/	-pre	4r	.	2ff#X\	-pre
.	.	4d\	et	.	.	4dd\	(et)	.	.
2r	.	4g\	ri-	4r	.	4dd\	ri-	4r	.
.	.	4e\	-tor-	4g\	(et)	4cc#X\	-tor-	4gg\	(et)
=14-	=14-	=14-	=14-	=14-	=14-	=14-	=14-	=14-	=14-
4r	.	2d\	-nar	4b-\	ri-	2.dd\	-nar	4gg\	ri-
4d\	(et)	.	.	4a\	-tor-	.	.	4ff#X\	-tor-
!LO:N:acc=#	!	!	!	!	!	!	!	!	!
4Bn\	ri-	4r	.	2g\	-nar	.	.	4gg\	-nar
*	*	*	*ij	*	*	*	*ij	*	*
4c\	-tor-	4g\	et	.	.	4g/	(et)	4ee-X\	(et)
!	!	!	!	!	!	!	!	!LO:SIC:v:t=custos dd	!
!	!	!	!	!	!	!	!	!LO:LB:g=original	!
2d\	-nar	4g\	ri-	4r	.	4b-y\	ri-	4.dd\	ri-
.	.	4f#X\	-tor-	2d/	(et)	4a/	-tor-	.	.
.	.	.	.	.	.	.	.	8cc\	-tor-
*	*ij	*	*	*	*	*	*	*	*
2G\	(et)	2g\	-nar	.	.	2g/	-nar	2b-/	-nar
*	*	*	*Xij	*	*	*	*Xij	*	*
.	.	.	.	2g\	ri-	.	.	.	.
!LO:SIC:v:t=custos B	!	!	!	!	!	!	!	!	!
!LO:LB:g=original	!	!	!	!	!	!	!	!	!
=15-	=15-	=15-	=15-	=15-	=15-	=15-	=15-	=15-	=15-
4B-\	ri-	4r	.	.	.	4r	.	1r	.
4A\	-tor-	4c/	et	4f#X\	-tor-	4ccny\	(et)	.	.
2G\	-nar	4e-X\	ri-	2g\	-nar	4cc\	ri-	.	.
*	*Xij	*	*	*	*	*	*	*	*
!	!	!	!	!	!	!LO:N:acc=#	!	!	!
.	.	4d\	-tor-	.	.	4bn/	-tor-	.	.
!	!	!	!	!	!	!LO:SIC:v:t=custos cc	!	!	!
!	!	!	!	!	!	!LO:LB:g=original	!	!	!
4r	.	4c/	-nar	2g\	il	4cc\	-nar	4r	.
4C/	il	4c/	il	.	.	4ee\	il	4cc\	il
!	!	!	!	!LO:SIC:v:t=custos a	!	!	!	!	!
!	!	!	!	!LO:LB:g=original	!	!	!	!	!
4F/	noſ-	4c/	noſ-	4a\	noſ-	4ffny\	noſ-	4cc\	noſ-
4BB-/	-tro	4B-/	-tro	4b-\	-tro	4ff\	-tro	4dd\	-tro
!	!	!LO:SIC:v:t=custos c	!	!	!	!	!	!	!
!	!	!LO:LB:g=original	!	!	!	!	!	!	!
=16-	=16-	=16-	=16-	=16-	=16-	=16-	=16-	=16-	=16-
1F	mon-	1c	mon-	4.a\	mon-	1ff	mon-	2cc\	mon-
.	.	.	.	8g\	.	.	.	.	.
.	.	.	.	2a\	.	.	.	2cc\	-do
1BB-	-do	2B-/	-do	1b-	-do	2dd\	-do	2r	.
.	.	2B-/	Piu	.	.	2ff\	Piu	2dd\	Piu
=17-	=17-	=17-	=17-	=17-	=17-	=17-	=17-	=17-	=17-
0r	.	4.B-/	lie-	00r	.	4.ff\	lie-	4.dd\	lie-
.	.	8c/	-to	.	.	8ee\	-to	8cc\	-to
.	.	4d\	che	.	.	4dd\	che	4b-/	che
.	.	4B-/	mai	.	.	4dd\	mai	4b-/	mail
.	.	2fny\	foſ-	.	.	4cc\	foſ-	4a/	foſ-
.	.	.	.	.	.	4cc\	-ſe et	4a/	-ſe et
.	.	2d\	-ſe et	.	.	4.dd\	piu	4b-/	piu
.	.	.	.	.	.	.	.	4.a/	gio-
.	.	.	.	.	.	8cc\	.	.	.
=18-	=18-	=18-	=18-	=18-	=18-	=18-	=18-	=18-	=18-
2r	.	4e-X\	piu	.	.	4b-y/	.	.	.
.	.	.	.	.	.	.	.	8g/	.
.	.	4c/	gio-	.	.	4cc\	gio-	2g/	.
4r	.	2d\	-con-	.	.	2a/	-con-	.	.
4d\	Piu	.	.	.	.	.	.	4f#X/	-con-
!	!	!	!	!	!	!	!	!LO:SIC:v:t=custos g	!
!	!	!	!	!	!	!	!	!LO:LB:g=original	!
4.d\	lie-	1G	-do	.	.	4g/	-do	2.g/	-do
.	.	.	.	.	.	4b-/	Piu	.	.
8c\	-to	.	.	.	.	.	.	.	.
!	!	!	!	!	!	!LO:SIC:v:t=custos dd	!	!	!
!	!	!	!	!	!	!LO:LB:g=original	!	!	!
4B-\	che	.	.	.	.	4.dd\	lie-	.	.
4G\	mai	.	.	.	.	.	.	4b-/	(et)
.	.	.	.	.	.	8ee\	-to	.	.
=19-	=19-	=19-	=19-	=19-	=19-	=19-	=19-	=19-	=19-
2d\	foſs'-	4r	.	2r	.	4ff\	che	4a/	piu
.	.	4G/	(et)	.	.	4gg\	mai	2b-/	gio-
2D/	-et	4.d\	piu	4r	.	4ff\	foſs'-	.	.
.	.	.	.	4d/	(et)	4ff\	-et	4.a/	-con-
.	.	8c\	.	.	.	.	.	.	.
4E-X/	piu	4B-/	.	4G/	piu	4ee-X\	piu	.	.
.	.	.	.	.	.	.	.	8g/	.
4C/	gio-	4c/	gio-	4G/	gio-	4ee-\	gio-	2g/	.
!LO:SIC:v:t=custos D	!	!	!	!	!	!	!	!	!
!LO:LB:g=original	!	!	!	!	!	!	!	!	!
2D/	-con-	2A/	-con-	2d/	-con-	2dd\	-con-	.	.
.	.	.	.	.	.	.	.	4f#X/	.
!	!	!LO:SIC:v:t=custos G	!	!	!	!	!	!	!
!	!	!LO:LB:g=original	!	!	!	!	!	!	!
=20-	=20-	=20-	=20-	=20-	=20-	=20-	=20-	=20-	=20-
!	!	!	!	!	!	!LO:N:acc=#	!	!	!
2G\	-do	4G/	-do	2d/	-do	2bn/	-do	4g/	-do
.	.	4g\	(et)	.	.	.	.	4dd\	(et)
2r	.	4g\	ri-	4r	.	4r	.	4dd\	ri-
.	.	4eny\	-tor-	4g\	(et)	4gg\	(et)	4cc#X\	-tor-
4r	.	2d\	-nar	4b-\	ri-	4gg\	ri-	2.dd\	-nar
4d\	(et)	.	.	4a\	-tor-	4ff#X\	-tor-	.	.
!LO:N:acc=#	!	!	!	!	!	!	!	!	!
4Bn\	ri-	4r	.	2g\	-nar	4gg\	-nar	.	.
*	*	*	*ij	*	*	*	*ij	*	*ij
4c\	-tor-	4g\	(et)	.	.	4ee-X\	(et)	4g/	(et)
=21-	=21-	=21-	=21-	=21-	=21-	=21-	=21-	=21-	=21-
2d\	-nar	4g\	ri-	4r	.	4.dd\	ri-	4b-/	ri-
*	*	*	*	*	*ij	*	*	*	*
.	.	4f#X\	-tor-	2d/	(et)	.	.	4a/	-tor-
.	.	.	.	.	.	8cc\	-tor-	.	.
*	*ij	*	*	*	*	*	*	*	*
2G\	(et)	2g\	-nar	.	.	2b-y/	-nar	2g/	-nar
*	*	*	*Xij	*	*	*	*Xij	*	*Xij
.	.	.	.	2g\	ri-	.	.	.	.
4B-y\	ri-	4r	.	.	.	1r	.	4r	.
4A\	-tor-	4c/	(et)	4f#X\	-tor-	.	.	4ccny\	(et)
!	!	!	!	!LO:SIC:v:t=custos g	!	!	!	!LO:SIC:v:t=custos cc	!
!	!	!	!	!LO:LB:g=original	!	!	!	!LO:LB:g=original	!
2G\	-nar	4e-X\	ri-	2g\	-nar	.	.	4cc\	ri-
*	*Xij	*	*	*	*Xij	*	*	*	*
!	!	!	!	!	!	!	!	!LO:N:acc=#	!
.	.	4d\	-tor-	.	.	.	.	4bn/	-tor-
=22-	=22-	=22-	=22-	=22-	=22-	=22-	=22-	=22-	=22-
4r	.	4c/	-nar	2g\	il	4r	.	4cc\	-nar
4C/	il	4c/	il	.	.	4cc\	il	4eeny\	il
4F/	noſ-	4c/	noſ-	4a\	noſ-	4cc\	noſ-	4ffny\	noſ-
4BB-/	-tro	4B-/	-tro	4b-\	-tro	4dd\	-tro	4ff\	-tro
!	!	!	!	!	!	!LO:SIC:v:t=custos cc	!	!	!
!	!	!	!	!	!	!LO:LB:g=original	!	!	!
1F	mon-	1c	mon-	4.a\	mon-	2cc\	mon-	1ff	mon-
.	.	.	.	8g\	.	.	.	.	.
.	.	.	.	2a\	.	2cc\	-do	.	.
=23-	=23-	=23-	=23-	=23-	=23-	=23-	=23-	=23-	=23-
1BB-	-do	2B-/	-do	1b-	-do	2r	.	2dd\	-do
.	.	2B-/	Piu	.	.	2dd\	Piu	2ff\	Piu
!	!	!LO:SIC:v:t=custos B	!	!	!	!	!	!	!
!	!	!LO:LB:g=original	!	!	!	!	!	!	!
1r	.	4.B-/	lie-	1r	.	4.dd\	lie-	4.ff\	lie-
.	.	8c/	-to	.	.	8cc\	-to	8ee\	-to
.	.	4d\	che	.	.	4b-/	che	4dd\	che
.	.	4B-/	mai	.	.	4b-/	mai	4dd\	mai
=24-	=24-	=24-	=24-	=24-	=24-	=24-	=24-	=24-	=24-
1r	.	2fny\	foſs'-	0r	.	4a/	foſs'-	4cc\	foſs'-
.	.	.	.	.	.	4a/	-et	4cc\	-et
.	.	2d\	-et	.	.	4b-/	piu	4.dd\	piu
.	.	.	.	.	.	4.a/	gio-	.	.
.	.	.	.	.	.	.	.	8cc\	.
2r	.	4e-X\	piu	.	.	.	.	4b-y/	.
.	.	.	.	.	.	8g/	.	.	.
.	.	4c/	gio-	.	.	2g/	.	4cc\	gio-
!	!	!	!	!	!	!	!	!LO:SIC:v:t=custos a	!
!	!	!	!	!	!	!	!	!LO:LB:g=original	!
4r	.	2d\	-con-	.	.	.	.	2a/	-con-
4d\	Piu	.	.	.	.	4f#X/	-con-	.	.
!LO:SIC:v:t=custos d	!	!	!	!	!	!	!	!	!
!LO:LB:g=original	!	!	!	!	!	!	!	!	!
=25-	=25-	=25-	=25-	=25-	=25-	=25-	=25-	=25-	=25-
4.d\	lie-	1G	-do	1r	.	2.g/	-do	4g/	-do
.	.	.	.	.	.	.	.	4b-/	Piu
8c\	-to	.	.	.	.	.	.	.	.
4B-\	che	.	.	.	.	.	.	4.dd\	lie-
4G\	mai	.	.	.	.	4b-/	(et)	.	.
.	.	.	.	.	.	.	.	8ee\	-to
2d\	foſ -	4r	.	2r	.	4a/	piu	4ff\	che
.	.	4G/	(et)	.	.	2b-/	gio-	4gg\	mai
2D/	-ſe et	4.d\	piu	4r	.	.	.	4ff\	foſs'-
.	.	.	.	4d/	(et)	4.a/	-con-	4ff\	-et
.	.	8c/	.	.	.	.	.	.	.
=26-	=26-	=26-	=26-	=26-	=26-	=26-	=26-	=26-	=26-
4E-X/	piu	4B-/	.	4G/	piu	.	.	4ee-X\	piu
.	.	.	.	.	.	8g/	.	.	.
4C/	gio-	4c/	gio-	4G/	gio-	2g/	.	4ee-\	gio-
2D/	-con-	2A/	-con-	2d/	-con-	.	.	2dd\	-con-
.	.	.	.	.	.	4f#X/	.	.	.
!	!	!	!	!	!	!	!	!LO:N:acc=#	!
0.Gl	-do.	0.Gl	-do.	0.dl	-do.	0.gl	-do.	0.bnl	-do.
=27-	=27-	=27-	=27-	=27-	=27-	=27-	=27-	=27-	=27-
.	.	.	.	.	.	.	.	.	.
=||	=||	=||	=||	=||	=||	=||	=||	=||	=||
*-	*-	*-	*-	*-	*-	*-	*-	*-	*-
!!!RDF**kern: l = terminal long
!!!system-decoration: [(s1,s2,s3,s4,s5)]
!!!ENC: Berenika Jozajtis
!!!END: 2022-07-08
!!!ENC: Urszula Świątek
!!!END: 2022-07-29
